src/r/0020-007f_ascii/0026_ampersand.svg

<?xml version="1.0" encoding="UTF-8" standalone="no"?>
<!-- Created with Inkscape (http://www.inkscape.org/) -->

<svg
   xmlns:dc="http://purl.org/dc/elements/1.1/"
   xmlns:cc="http://creativecommons.org/ns#"
   xmlns:rdf="http://www.w3.org/1999/02/22-rdf-syntax-ns#"
   xmlns:svg="http://www.w3.org/2000/svg"
   xmlns="http://www.w3.org/2000/svg"
   version="1.1"
   width="1024"
   height="2048"
   id="svg3355">
  <defs
     id="defs3357" />
  <metadata
     id="metadata3360">
    <rdf:RDF>
      <cc:Work
         rdf:about="">
        <dc:format>image/svg+xml</dc:format>
        <dc:type
           rdf:resource="http://purl.org/dc/dcmitype/StillImage" />
        <dc:title></dc:title>
      </cc:Work>
    </rdf:RDF>
  </metadata>
  <path
     d="m 503,248 c -231.9965,0 -375,85.00436 -375,342 0,179.0013 106,238 106,238 0,0 -170,81.9965 -170,328 0,291.0028 170.9955,388 448,388 l 150,-150 c 49.68096,109.7187 154.68823,150 298,150 l 0,-149 c -99.0016,0 -160,-44.997 -160,-180 l 0,-290 160,0 0,-157 -160,0 0,-196.3125 -170,0 L 630,768 425,768 C 346.9963,768 298,699.00117 298,590 298,457.00438 375.9954,412.99998 503,413 l 127,0 0,-149 c 0,0 -49.0027,-16 -127,-16 z m -118,677 245,0 0,290 c 0,69.9343 9.888,126.6366 29,172 l -147,0 c -171.9959,0 -278,-88.001 -278,-231 0,-142.999 58.0026,-231 151,-231 z"
     id="path3157-2-7-2-4-4"
     style="fill:#000000;fill-opacity:1;stroke:none;display:inline" />
</svg>

<?xml version="1.0" encoding="UTF-8" standalone="no"?>
<svg
   xmlns:dc="http://purl.org/dc/elements/1.1/"
   xmlns:cc="http://creativecommons.org/ns#"
   xmlns:rdf="http://www.w3.org/1999/02/22-rdf-syntax-ns#"
   xmlns:svg="http://www.w3.org/2000/svg"
   xmlns="http://www.w3.org/2000/svg"
   version="1.1"
   width="1024"
   height="2048"
   id="svg3355">
  <defs
     id="defs3357" />
  <metadata
     id="metadata3360">
    <rdf:RDF>
      <cc:Work
         rdf:about="">
        <dc:format>image/svg+xml</dc:format>
        <dc:type
           rdf:resource="http://purl.org/dc/dcmitype/StillImage" />
        <dc:title></dc:title>
      </cc:Work>
    </rdf:RDF>
  </metadata>
  <path
     d="m 503,248 c -231.9965,0 -375,85.00436 -375,342 0,179.0013 106,238 106,238 0,0 -170,81.9965 -170,328 0,291.0028 170.9955,388 448,388 l 150,-150 c 49.68096,109.7187 154.68823,150 298,150 v -149 c -99.0016,0 -160,-44.997 -160,-180 V 925 H 960 V 768 H 800 V 549 H 630 V 768 H 425 C 346.9963,768 298,699.00117 298,590 298,457.00438 375.9954,412.99998 503,413 H 630 V 264 c 0,0 -49.0027,-16 -127,-16 z M 385,925 h 245 v 290 c 0,69.9343 9.888,126.6366 29,172 H 512 c -171.9959,0 -278,-88.001 -278,-231 0,-142.999 58.0026,-231 151,-231 z"
     id="path3157-2-7-2-4-4"
     style="display:inline;fill:#000000;fill-opacity:1;stroke:none" />
</svg>
